X:1
T:Title
%%score { ( 1 2 ) | ( 3 4 ) }
L:1/8
M:4/4
K:F
V:1 treble nm="Grand Piano"
V:2 treble 
V:3 bass 
V:4 bass 
V:1
 z4 z2[Q:1/4=94] z A | [FAc]2 [FAc][EGc] [Fc]2 [A,F][CFA] | AGFE F2 F2 | B2 cd c2 AF | %4
[M:3/4] [EG]6 |[M:1/4] z A |[M:4/4] [FAc]2 [FAc][EGc] [Fc]2 [A,F][CFA] | AGFE F2 [DB][Fd] | %8
 [Fc]2 [FA][A,F] [CFA]2 [B,EG][B,EG] |[M:3/4] [A,F]6 |] %10
V:2
 z4 z2 F2 | x8 | [B,F]2 z2 z4 | x8 |[M:3/4] x6 |[M:1/4] F2 |[M:4/4] x8 | [B,F]2 z2 z4 | x8 | %9
[M:3/4] x6 |] %10
V:3
 z4 z2 A,C | F,2 F,G, A,2 F,F, | B,,2 [C,A,C][C,G,C] [F,A,C]2 [F,A,]2 | %3
 [F,DF]2 [F,A,F][F,B,F] [F,A,F]2 [F,CF][F,A,] |[M:3/4] [C,C]6 |[M:1/4] A,C | %6
[M:4/4] F,2 F,G, A,2 F,F, | B,,2 [C,A,C][C,G,C] [F,A,C]2 [B,,B,]2 | [C,A,]2 [C,F,]C, C,2 C,C, | %9
[M:3/4] F,6 |] %10
V:4
 z4 z2 F,2 | x8 | x8 | x8 |[M:3/4] x6 |[M:1/4] F,2 |[M:4/4] x8 | x8 | x8 |[M:3/4] x6 |] %10

